X:1
T:Protection, 11.11.11.11
T:Protection, 11.11.11.11
T:Joseph Funk, 1832
T:Public Domain Courtesy of the Cyber Hymnal™
C:Joseph Funk, 1832
Z:Public Domain
Z:Courtesy of the Cyber Hymnal™
%%score 1 ( 2 3 )
L:1/8
Q:1/4=135
M:2/2
K:Ab
V:1 treble 
V:2 bass 
V:3 bass 
V:1
 ([CE]2 [DF]2) | [EA]4 [DF]2 [FA]2 | [CE]4 [CA]2 [CA]2 | [Ec]4 [CA]2 [A,c]2 | %4
 [B,E]4 ([CE]2 [DF]2) | [EA]4 [DF]2 [FA]2 | [CE]4 [CA]2 [CA]2 | [Ec]4 [EB]2 [DB]2 | [CA]4 [Ec]4 | %9
 [Ae]4 [Ec]2 [Ee]2 | [FA]4 [FA]2 [FA]2 | [Ec]4 [CA]2 [Cc]2 | [B,E]4 ([CE]2 [DF]2) | %13
 [EA]4 [DF]2 [FA]2 | E4 [CA]2 [CA]2 | [Ec]4 [EB]2 [DB]2 | [CA]4 |] %17
V:2
 [A,,A,]4 | [A,,C]4 [D,A,]2 [D,A,]2 | [C,A,]4 [A,,E,]2 [A,,E,]2 | [A,,A,]4 [A,,A,]2 [A,,A,]2 | %4
 [E,G,]4 [A,,A,]4 | [A,,C]4 [D,A,]2 [D,A,]2 | [C,A,]4 [F,A,]2 [F,A,]2 | [E,A,]4 [E,G,]2 [E,G,]2 | %8
 [A,,A,]4 [C,A,]4 | [A,C]4 A,2 [G,B,]2 | [F,C]4 [D,B,]2 [D,A,]2 | [A,,A,]4 [A,,A,]2 [A,,A,]2 | %12
 [E,G,]4 [A,,A,]4 | [A,,C]4 [D,A,]2 [D,A,]2 | [C,A,]4 [F,A,]2 [F,A,]2 | [E,A,]4 [E,G,]2 [E,G,]2 | %16
 [A,,E,A,]4 |] %17
V:3
 x4 | x8 | x8 | x8 | x8 | x8 | x8 | x8 | x8 | x4 A,2 x2 | x8 | x8 | x8 | x8 | x8 | x8 | x4 |] %17

